src/assets/svgs/about.svg

<svg viewBox="0 0 584 423" fill="none" xmlns="http://www.w3.org/2000/svg">
<path d="M290.824 421.717C451.124 421.717 581.073 392.777 581.073 357.078C581.073 321.379 451.124 292.439 290.824 292.439C130.523 292.439 0.574219 321.379 0.574219 357.078C0.574219 392.777 130.523 421.717 290.824 421.717Z" fill="#DFF2FA" fill-opacity="0.89"/>
<path opacity="0.7" d="M583.634 357.404C583.634 361.77 581.649 366.064 577.804 370.249C573.957 374.436 568.266 378.492 560.905 382.367C546.185 390.118 524.861 397.109 498.48 402.984C445.723 414.733 372.823 422.003 292.287 422.003C211.751 422.003 138.851 414.733 86.0945 402.984C59.7132 397.109 38.3889 390.118 23.6689 382.367C16.3085 378.492 10.6172 374.436 6.77013 370.249C2.92491 366.064 0.939992 361.77 0.939992 357.404C0.939992 353.038 2.92491 348.743 6.77013 344.558C10.6172 340.372 16.3085 336.316 23.6689 332.44C38.3889 324.69 59.7132 317.699 86.0945 311.824C138.851 300.075 211.751 292.805 292.287 292.805C372.823 292.805 445.723 300.075 498.48 311.824C524.861 317.699 546.185 324.69 560.905 332.44C568.266 336.316 573.957 340.372 577.804 344.558C581.649 348.743 583.634 353.038 583.634 357.404Z" stroke="#012E6D" stroke-width="0.731546"/>
<path d="M425.383 144.3L397.08 286.091H390.953L390.279 285.043L388.327 282.007L412.836 149.551L416.557 147.993L425.383 144.3Z" fill="#47465A"/>
<path opacity="0.1" d="M416.557 147.993L390.279 285.043L388.327 282.007L412.836 149.551L416.557 147.993Z" fill="black"/>
<path d="M467.984 337.439L460.707 339.785L458.939 340.356L456.604 335.105L416.557 152.445L420.721 151.512L429.468 149.551L467.984 337.439Z" fill="#47465A"/>
<path opacity="0.1" d="M460.707 339.785L458.939 340.356L456.604 335.105L416.557 152.445L420.721 151.512L460.707 339.785Z" fill="black"/>
<path d="M121.051 144.3L114.632 328.103L107.276 329.737L106.754 329.854L104.711 326.061L108.796 146.05L112.726 145.49L121.051 144.3Z" fill="#47465A"/>
<path opacity="0.1" d="M112.726 145.49L107.276 329.737L106.754 329.853L104.711 326.061L108.796 146.049L112.726 145.49Z" fill="black"/>
<path d="M159.275 393.164L151.666 394.476L150.813 394.622L148.479 389.663L111.422 149.551L112.49 149.227L118.134 147.509L159.275 393.164Z" fill="#47465A"/>
<path opacity="0.1" d="M151.666 394.477L150.813 394.622L148.479 389.663L111.422 149.551L112.49 149.227L151.666 394.477Z" fill="black"/>
<path d="M320.34 129.42L348.673 165.619C349.644 166.86 350.918 167.83 352.373 168.436C353.827 169.043 355.413 169.265 356.977 169.082L473.287 155.461C475.523 155.199 477.586 154.126 479.082 152.444C480.579 150.762 481.406 148.588 481.406 146.337V119.5L320.34 129.42Z" fill="#7A799C"/>
<path d="M415.755 135.255H423.633V146.624C423.633 147.4 423.324 148.145 422.775 148.694C422.226 149.242 421.482 149.551 420.706 149.551H418.682C417.906 149.551 417.161 149.242 416.612 148.694C416.063 148.145 415.755 147.4 415.755 146.624V135.255Z" fill="#47465A"/>
<path d="M111.422 152.469L139.755 188.668C140.726 189.908 142 190.879 143.455 191.485C144.909 192.091 146.495 192.313 148.059 192.13L264.369 178.51C266.605 178.248 268.668 177.174 270.164 175.492C271.661 173.81 272.488 171.637 272.488 169.386V142.549L111.422 152.469Z" fill="#7A799C"/>
<path d="M206.836 158.303H214.714V169.672C214.714 170.449 214.406 171.193 213.857 171.742C213.308 172.291 212.563 172.599 211.787 172.599H209.763C208.987 172.599 208.243 172.291 207.694 171.742C207.145 171.193 206.836 170.449 206.836 169.672V158.303H206.836Z" fill="#47465A"/>
<path d="M143.974 170.802L489.937 130.508C491.024 130.381 492.041 129.908 492.838 129.157C493.634 128.407 494.167 127.42 494.358 126.342C494.549 125.265 494.388 124.155 493.897 123.176C493.407 122.198 492.615 121.404 491.638 120.912L429.751 89.7914C417.561 83.662 403.875 81.1409 390.301 82.5248L82.9395 113.861C81.8405 113.976 80.7961 114.398 79.9259 115.079C79.0557 115.76 78.3949 116.672 78.0191 117.711C77.6433 118.75 77.5678 119.874 77.8011 120.954C78.0345 122.034 78.5673 123.026 79.3386 123.818L115.131 160.535C118.835 164.336 123.361 167.237 128.361 169.016C133.36 170.796 138.701 171.407 143.974 170.802Z" fill="#47465A"/>
<path d="M528 125.047L524.299 123.001C524.299 123.001 520.304 125.942 517.049 138.33C513.794 150.718 523.132 138.464 523.132 138.464L527.217 130.004L528 125.047Z" fill="#47465A"/>
<path d="M488.409 238.535C488.409 238.535 484.616 256.332 482.865 261.292C482.007 263.719 477.864 265.94 473.271 267.638C469.199 269.154 464.984 270.254 460.689 270.92C455.729 271.503 392.12 261.584 361.191 254.873C340.354 250.354 337.661 245.17 338.122 242.27C338.27 241.406 338.684 240.611 339.307 239.994C339.307 239.994 369.944 219.28 380.74 209.36C391.536 199.44 412.837 207.318 436.179 211.402C459.522 215.487 488.409 238.535 488.409 238.535Z" fill="#47465A"/>
<path d="M524.299 123.002C524.299 123.002 538.596 132.338 490.452 151.593C490.452 151.593 464.284 166.346 467.69 227.118C467.852 229.85 468.684 232.501 470.113 234.836C475.08 243.005 485.725 263.684 467.984 266.252V270.92C467.984 270.92 500.081 254.873 503.582 241.161C507.084 227.449 518.755 151.302 524.591 144.3C530.426 137.297 534.22 126.211 524.299 123.002Z" fill="#47465A"/>
<path opacity="0.1" d="M473.271 267.638C469.199 269.155 464.984 270.254 460.689 270.92C455.729 271.504 392.12 261.584 361.191 254.874C340.354 250.354 337.661 245.17 338.122 242.27C351.818 246.952 396.292 261.814 412.253 263.043C431.219 264.501 467.453 268.557 470.199 265.8C471.255 264.738 472.337 265.858 473.271 267.638Z" fill="black"/>
<path d="M306.627 389.079L334.347 262.459C334.347 262.459 339.307 249.038 350.687 249.622L361.191 254.873C361.191 254.873 343.684 250.789 339.891 264.21C336.097 277.63 311.879 389.079 311.879 389.079H306.627Z" fill="#47465A"/>
<path d="M373.154 331.313L384.242 253.998H389.202L377.823 331.313H373.154Z" fill="#47465A"/>
<path d="M479.363 406.876L468.859 286.091C468.859 286.091 468.859 275.879 474.111 270.92C479.363 265.96 496.319 251.812 496.319 251.812C496.319 251.812 500.664 250.789 504.165 260.708C507.667 270.628 531.885 369.824 531.885 369.824L527.216 371.866L497.162 257.499L476.446 277.046C476.446 277.046 472.361 284.34 474.403 291.051C476.446 297.761 484.032 406.876 484.032 406.876H479.363Z" fill="#47465A"/>
<path d="M446.976 268.003L473.236 275.588L479.072 270.045L463.899 268.003H446.976Z" fill="#47465A"/>
<path d="M213.52 55.0538L217.778 118.917L310.858 109.873L307.154 47.4437C307.104 46.6076 306.888 45.7898 306.517 45.0386C306.147 44.2874 305.63 43.6179 304.997 43.0695C304.364 42.5211 303.627 42.1049 302.831 41.8455C302.034 41.586 301.194 41.4885 300.359 41.5587L219.26 48.3794C217.619 48.5174 216.098 49.2942 215.024 50.5426C213.951 51.791 213.411 53.4111 213.52 55.0538Z" fill="#7A799C"/>
<path d="M342.079 128.253L249.291 138.374L245.789 138.756L218.654 121.251V117.458L310.857 109.155L342.079 128.253Z" fill="#7A799C"/>
<path opacity="0.1" d="M249.291 138.374L245.789 138.756L218.654 121.251V117.855L249.291 138.374Z" fill="black"/>
<path d="M219.821 54.4396L223.031 111.331L304.73 103.746L301.812 48.3127L219.821 54.4396Z" fill="#9493B6"/>
<path opacity="0.1" d="M268.548 127.086L278.469 133.797L308.523 130.879L298.31 124.46L268.548 127.086Z" fill="black"/>
<path d="M227.99 118.917L240.537 128.253L320.779 120.668L306.481 111.331L227.99 118.917Z" fill="#9493B6"/>
<path d="M429.614 32.7042H370.381V91.9298H429.614V32.7042Z" fill="#7C5C5C"/>
<path opacity="0.1" d="M429.614 32.7042H370.381V91.9298H429.614V32.7042Z" fill="black"/>
<path d="M390.781 60.1125C390.781 60.1125 399.137 82.7401 390.781 86.9175C382.425 91.0949 420.722 86.9175 420.722 86.9175L431.515 78.2146C431.515 78.2146 407.144 71.2522 410.626 55.2388C414.107 39.2255 390.781 60.1125 390.781 60.1125Z" fill="#FBBEBE"/>
<path opacity="0.1" d="M390.781 60.1125C390.781 60.1125 399.137 82.7401 390.781 86.9175C382.425 91.0949 420.722 86.9175 420.722 86.9175L431.515 78.2146C431.515 78.2146 407.144 71.2522 410.626 55.2388C414.107 39.2255 390.781 60.1125 390.781 60.1125Z" fill="black"/>
<path d="M322.194 287.084C322.194 287.084 353.528 331.295 348.306 343.479C343.084 355.664 345.869 363.322 335.424 367.499C324.979 371.677 322.194 379.335 331.246 378.987C340.298 378.639 352.136 376.202 353.876 373.069C355.617 369.936 359.795 354.967 365.714 352.879C371.632 350.79 382.773 342.783 374.766 333.036C366.758 323.289 346.582 287.386 348.14 283.754C349.698 280.122 322.194 287.084 322.194 287.084Z" fill="#FBBEBE"/>
<path d="M387.647 199.707C387.647 199.707 322.89 203.885 306.178 219.55C289.467 235.215 320.801 293.699 324.283 294.395C327.764 295.091 354.92 292.306 353.876 284.648C352.831 276.989 334.379 245.659 334.379 245.659C334.379 245.659 358.402 236.956 371.632 234.867C384.862 232.778 399.485 223.031 399.485 223.031L387.647 199.707Z" fill="#9493B6"/>
<path d="M358.054 189.96C358.054 189.96 359.098 228.601 368.847 229.994C378.595 231.386 368.847 200.404 368.847 200.404L368.498 188.568L358.054 189.96Z" fill="#FBBEBE"/>
<path d="M387.648 88.6581C387.648 88.6581 369.544 83.4363 366.062 97.361C362.581 111.286 361.536 159.326 361.536 159.326L355.269 197.619C355.269 197.619 366.758 194.138 369.196 195.878L383.818 177.428L387.648 88.6581Z" fill="#012E6D"/>
<path opacity="0.1" d="M387.648 88.6581C387.648 88.6581 369.544 83.4363 366.062 97.361C362.581 111.286 361.536 159.326 361.536 159.326L355.269 197.619C355.269 197.619 366.758 194.138 369.196 195.878L383.818 177.428L387.648 88.6581Z" fill="black"/>
<path d="M412.385 294.498C412.385 294.498 424.552 318.415 431.863 318.067C439.175 317.719 446.138 313.193 449.62 327.466C453.101 341.739 448.923 337.91 453.101 346.265C457.279 354.619 457.975 369.24 449.968 372.722C441.96 376.203 434.649 376.551 434.301 372.722C433.952 368.892 441.264 368.892 432.908 355.316C424.552 341.739 406.796 317.023 399.485 314.586C392.174 312.149 412.385 294.498 412.385 294.498Z" fill="#FBBEBE"/>
<path d="M444.049 185.435C444.049 185.435 469.116 227.209 452.753 239.393C436.389 251.577 387.647 274.901 387.647 274.901C387.647 274.901 413.759 292.655 415.152 298.573C416.544 304.491 402.618 320.504 397.744 320.852C392.87 321.2 378.595 304.839 363.276 300.661C347.958 296.484 338.557 266.546 355.269 255.406C371.98 244.266 387.647 225.816 387.647 225.816L382.776 199.015L444.049 185.435Z" fill="#9493B6"/>
<path d="M422.32 46.1248C422.32 60.9288 407.153 73.1668 392.348 73.1668C385.238 73.1668 378.419 70.3427 373.391 65.3158C368.364 60.2888 365.54 53.4709 365.54 46.3618C365.54 39.2526 368.364 32.4347 373.391 27.4078C378.419 22.3809 385.238 19.5568 392.348 19.5568C407.153 19.5567 422.32 31.3208 422.32 46.1248Z" fill="#FBBEBE"/>
<path d="M399.136 84.8289C399.136 84.8289 423.159 74.3854 423.159 72.9929C423.159 71.6005 437.086 76.126 440.219 78.9109C443.352 81.6959 445.093 81.3477 447.182 86.9176C449.271 92.4874 436.737 144.357 436.737 144.357C436.737 144.357 443.701 184.39 447.53 188.22C451.36 192.049 416.544 197.619 416.544 197.619C416.544 197.619 393.566 201.796 389.736 203.537C385.906 205.277 378.943 207.714 380.336 203.537C381.729 199.359 387.647 196.226 377.551 191.005C377.551 191.005 381.032 173.947 377.551 166.288C374.069 158.63 358.054 130.78 370.936 110.59C383.818 90.3988 389.736 83.0883 389.736 83.0883C389.736 83.0883 394.262 86.9176 399.136 84.8289Z" fill="#012E6D"/>
<path d="M406.796 179.865C406.796 179.865 379.64 191.908 371.458 193.023C363.277 194.137 338.558 200.403 352.136 205.973C365.714 211.543 386.255 203.188 386.255 203.188L415.152 191.004L406.796 179.865Z" fill="#FBBEBE"/>
<path opacity="0.1" d="M436.034 83.7607C436.034 83.7607 446.062 78.9106 448.847 95.9683C451.632 113.026 461.38 166.984 448.847 174.991C436.313 182.998 407.416 195.878 407.416 195.878C407.416 195.878 390.356 184.39 398.364 180.213C406.372 176.035 425.52 164.199 428.305 160.022C431.091 155.844 433.905 109.216 429.031 101.558C424.157 93.8989 436.034 83.7607 436.034 83.7607Z" fill="black"/>
<path d="M435.345 79.6069C435.345 79.6069 449.271 78.9106 452.056 95.9684C454.842 113.026 464.59 166.984 452.056 174.991C439.523 182.998 410.626 195.878 410.626 195.878C410.626 195.878 393.566 184.39 401.574 180.213C409.581 176.035 428.73 164.199 431.515 160.022C434.3 155.844 429.426 112.33 424.552 104.671C419.678 97.0127 435.345 79.6069 435.345 79.6069Z" fill="#012E6D"/>
<path d="M385.744 1.23878C381.47 1.8204 376.885 3.38374 374.735 7.1225C373.682 8.95195 373.342 11.0981 372.531 13.0467C370.294 18.424 364.861 21.6352 360.938 25.9405C355.826 31.5514 353.287 40.0065 356.302 46.9723C357.47 49.6697 359.366 51.9805 360.804 54.544C364.815 61.6959 365.029 70.2852 365.143 78.4842L365.368 94.6053C365.402 97.0669 365.429 99.5782 364.688 101.926C363.947 104.274 362.291 106.472 359.944 107.214C362.534 108.111 365.35 108.118 367.945 107.232C370.539 106.346 372.763 104.619 374.263 102.324C374.584 104.355 374.401 106.432 373.732 108.376C373.062 110.319 371.926 112.069 370.423 113.471C376.805 111.968 382.158 107.326 385.53 101.703C388.902 96.0792 390.466 89.5382 391.167 83.0191C391.537 79.571 391.668 76.0057 390.578 72.7133C389.811 70.3944 388.473 68.3155 387.202 66.2294C383.927 60.8514 380.977 55.1312 379.921 48.9235C378.866 42.7157 379.926 35.9046 383.957 31.0671C385.504 29.1978 387.454 27.7017 389.66 26.6903C391.866 25.6789 394.272 25.1783 396.698 25.2256C399.124 25.3194 401.486 26.0342 403.556 27.3017C405.627 28.5692 407.338 30.347 408.525 32.4648C409.456 34.2177 410.782 36.5935 412.669 35.9776C413.018 35.8294 413.36 35.6619 413.691 35.4759C415.795 34.5182 418.186 36.4076 419.114 38.5253C422.041 45.2046 416.648 52.4961 416.091 59.7672C415.572 66.531 419.344 72.9101 423.852 77.9796C431.639 86.6999 441.81 92.9483 453.109 95.953C451.455 95.5363 449.972 94.615 448.865 93.3169C453.459 93.5006 458.058 93.1151 462.558 92.1692C457.659 88.4779 452.726 84.7552 448.636 80.184C444.546 75.6129 441.307 70.0819 440.425 64.0123C439.241 55.8665 442.275 47.0455 438.806 39.5808C435.635 32.7563 427.769 28.9427 424.896 21.9871C421.978 14.922 420.087 8.784 412.361 5.7083C403.93 2.35143 394.854 -0.000867903 385.744 1.23878Z" fill="#7C5C5C"/>
</svg>

<svg viewBox="0 0 584 423" fill="none" xmlns="http://www.w3.org/2000/svg"><path d="M290.824 421.717c160.3 0 290.249-28.94 290.249-64.639s-129.949-64.639-290.249-64.639c-160.301 0-290.25 28.94-290.25 64.639s129.949 64.639 290.25 64.639z" fill="#DFF2FA" fill-opacity=".89"/><path opacity=".7" d="M583.634 357.404c0 4.366-1.985 8.66-5.83 12.845-3.847 4.187-9.538 8.243-16.899 12.118-14.72 7.751-36.044 14.742-62.425 20.617-52.757 11.749-125.657 19.019-206.193 19.019-80.536 0-153.436-7.27-206.192-19.019-26.382-5.875-47.706-12.866-62.426-20.617-7.36-3.875-13.052-7.931-16.899-12.118-3.845-4.185-5.83-8.479-5.83-12.845 0-4.366 1.985-8.661 5.83-12.846 3.847-4.186 9.538-8.242 16.899-12.118 14.72-7.75 36.044-14.741 62.425-20.616 52.757-11.749 125.657-19.019 206.193-19.019 80.536 0 153.436 7.27 206.193 19.019 26.381 5.875 47.705 12.866 62.425 20.616 7.361 3.876 13.052 7.932 16.899 12.118 3.845 4.185 5.83 8.48 5.83 12.846z" stroke="#012E6D" stroke-width=".732"/><path d="M425.383 144.3L397.08 286.091h-6.127l-.674-1.048-1.952-3.036 24.509-132.456 3.721-1.558 8.826-3.693z" fill="#47465A"/><path opacity=".1" d="M416.557 147.993l-26.278 137.05-1.952-3.036 24.509-132.456 3.721-1.558z" fill="#000"/><path d="M467.984 337.439l-7.277 2.346-1.768.571-2.335-5.251-40.047-182.66 4.164-.933 8.747-1.961 38.516 187.888z" fill="#47465A"/><path opacity=".1" d="M460.707 339.785l-1.768.571-2.335-5.251-40.047-182.66 4.164-.933 39.986 188.273z" fill="#000"/><path d="M121.051 144.3l-6.419 183.803-7.356 1.634-.522.117-2.043-3.793 4.085-180.011 3.93-.56 8.325-1.19z" fill="#47465A"/><path opacity=".1" d="M112.726 145.49l-5.45 184.247-.522.116-2.043-3.792 4.085-180.012 3.93-.559z" fill="#000"/><path d="M159.275 393.164l-7.609 1.312-.853.146-2.334-4.959-37.057-240.112 1.068-.324 5.644-1.718 41.141 245.655z" fill="#47465A"/><path opacity=".1" d="M151.666 394.477l-.853.145-2.334-4.959-37.057-240.112 1.068-.324 39.176 245.25z" fill="#000"/><path d="M320.34 129.42l28.333 36.199a9.178 9.178 0 003.7 2.817 9.182 9.182 0 004.604.646l116.31-13.621a9.186 9.186 0 008.119-9.124V119.5l-161.066 9.92z" fill="#7A799C"/><path d="M415.755 135.255h7.878v11.369a2.929 2.929 0 01-2.927 2.927h-2.024a2.928 2.928 0 01-2.927-2.927v-11.369z" fill="#47465A"/><path d="M111.422 152.469l28.333 36.199a9.187 9.187 0 008.304 3.462l116.31-13.62a9.187 9.187 0 008.119-9.124v-26.837l-161.066 9.92z" fill="#7A799C"/><path d="M206.836 158.303h7.878v11.369a2.926 2.926 0 01-2.927 2.927h-2.024a2.925 2.925 0 01-2.927-2.927v-11.369z" fill="#47465A"/><path d="M143.974 170.802l345.963-40.294a5.09 5.09 0 004.421-4.166 5.081 5.081 0 00-2.72-5.43l-61.887-31.12a71.64 71.64 0 00-39.45-7.267L82.94 113.86a5.883 5.883 0 00-3.601 9.957l35.792 36.717a34.74 34.74 0 0028.843 10.267zM528 125.047l-3.701-2.046s-3.995 2.941-7.25 15.329c-3.255 12.388 6.083.134 6.083.134l4.085-8.46.783-4.957zM488.409 238.535s-3.793 17.797-5.544 22.757c-.858 2.427-5.001 4.648-9.594 6.346a64.3 64.3 0 01-12.582 3.282c-4.96.583-68.569-9.336-99.498-16.047-20.837-4.519-23.53-9.703-23.069-12.603a4.2 4.2 0 011.185-2.276s30.637-20.714 41.433-30.634c10.796-9.92 32.097-2.042 55.439 2.042 23.343 4.085 52.23 27.133 52.23 27.133z" fill="#47465A"/><path d="M524.299 123.002s14.297 9.336-33.847 28.591c0 0-26.168 14.753-22.762 75.525a16.677 16.677 0 002.423 7.718c4.967 8.169 15.612 28.848-2.129 31.416v4.668s32.097-16.047 35.598-29.759c3.502-13.712 15.173-89.859 21.009-96.861 5.835-7.003 9.629-18.089-.292-21.298z" fill="#47465A"/><path opacity=".1" d="M473.271 267.638a64.23 64.23 0 01-12.582 3.282c-4.96.584-68.569-9.336-99.498-16.046-20.837-4.52-23.53-9.704-23.069-12.604 13.696 4.682 58.17 19.544 74.131 20.773 18.966 1.458 55.2 5.514 57.946 2.757 1.056-1.062 2.138.058 3.072 1.838z" fill="#000"/><path d="M306.627 389.079l27.72-126.62s4.96-13.421 16.34-12.837l10.504 5.251s-17.507-4.084-21.3 9.337c-3.794 13.42-28.012 124.869-28.012 124.869h-5.252zM373.154 331.313l11.088-77.315h4.96l-11.379 77.315h-4.669zM479.363 406.876l-10.504-120.785s0-10.212 5.252-15.171c5.252-4.96 22.208-19.108 22.208-19.108s4.345-1.023 7.846 8.896c3.502 9.92 27.72 109.116 27.72 109.116l-4.669 2.042-30.054-114.367-20.716 19.547s-4.085 7.294-2.043 14.005c2.043 6.71 9.629 115.825 9.629 115.825h-4.669z" fill="#47465A"/><path d="M446.976 268.003l26.26 7.585 5.836-5.543-15.173-2.042h-16.923z" fill="#47465A"/><path d="M213.52 55.054l4.258 63.863 93.08-9.044-3.704-62.43a6.277 6.277 0 00-4.323-5.597 6.282 6.282 0 00-2.472-.287l-81.099 6.82a6.282 6.282 0 00-5.74 6.675z" fill="#7A799C"/><path d="M342.079 128.253l-92.788 10.121-3.502.382-27.135-17.505v-3.793l92.203-8.303 31.222 19.098z" fill="#7A799C"/><path opacity=".1" d="M249.291 138.374l-3.502.382-27.135-17.505v-3.396l30.637 20.519z" fill="#000"/><path d="M219.821 54.44l3.21 56.891 81.699-7.585-2.918-55.433-81.991 6.127z" fill="#9493B6"/><path opacity=".1" d="M268.548 127.086l9.921 6.711 30.054-2.918-10.213-6.419-29.762 2.626z" fill="#000"/><path d="M227.99 118.917l12.547 9.336 80.242-7.585-14.298-9.337-78.491 7.586z" fill="#9493B6"/><path d="M429.614 32.704h-59.233V91.93h59.233V32.704z" fill="#7C5C5C"/><path opacity=".1" d="M429.614 32.704h-59.233V91.93h59.233V32.704z" fill="#000"/><path d="M390.781 60.112s8.356 22.628 0 26.806c-8.356 4.177 29.941 0 29.941 0l10.793-8.703s-24.371-6.963-20.889-22.976c3.481-16.014-19.845 4.873-19.845 4.873z" fill="#FBBEBE"/><path opacity=".1" d="M390.781 60.112s8.356 22.628 0 26.806c-8.356 4.177 29.941 0 29.941 0l10.793-8.703s-24.371-6.963-20.889-22.976c3.481-16.014-19.845 4.873-19.845 4.873z" fill="#000"/><path d="M322.194 287.084s31.334 44.211 26.112 56.395c-5.222 12.185-2.437 19.843-12.882 24.02-10.445 4.178-13.23 11.836-4.178 11.488 9.052-.348 20.89-2.785 22.63-5.918 1.741-3.133 5.919-18.102 11.838-20.19 5.918-2.089 17.059-10.096 9.052-19.843-8.008-9.747-28.184-45.65-26.626-49.282 1.558-3.632-25.946 3.33-25.946 3.33z" fill="#FBBEBE"/><path d="M387.647 199.707s-64.757 4.178-81.469 19.843c-16.711 15.665 14.623 74.149 18.105 74.845 3.481.696 30.637-2.089 29.593-9.747-1.045-7.659-19.497-38.989-19.497-38.989s24.023-8.703 37.253-10.792c13.23-2.089 27.853-11.836 27.853-11.836l-11.838-23.324z" fill="#9493B6"/><path d="M358.054 189.96s1.044 38.641 10.793 40.034c9.748 1.392 0-29.59 0-29.59l-.349-11.836-10.444 1.392z" fill="#FBBEBE"/><path d="M387.648 88.658s-18.104-5.222-21.586 8.703c-3.481 13.925-4.526 61.965-4.526 61.965l-6.267 38.293s11.489-3.481 13.927-1.741l14.622-18.45 3.83-88.77z" fill="#012E6D"/><path opacity=".1" d="M387.648 88.658s-18.104-5.222-21.586 8.703c-3.481 13.925-4.526 61.965-4.526 61.965l-6.267 38.293s11.489-3.481 13.927-1.741l14.622-18.45 3.83-88.77z" fill="#000"/><path d="M412.385 294.498s12.167 23.917 19.478 23.569c7.312-.348 14.275-4.874 17.757 9.399 3.481 14.273-.697 10.444 3.481 18.799 4.178 8.354 4.874 22.975-3.133 26.457-8.008 3.481-15.319 3.829-15.667 0-.349-3.83 6.963-3.83-1.393-17.406-8.356-13.577-26.112-38.293-33.423-40.73-7.311-2.437 12.9-20.088 12.9-20.088z" fill="#FBBEBE"/><path d="M444.049 185.435s25.067 41.774 8.704 53.958c-16.364 12.184-65.106 35.508-65.106 35.508s26.112 17.754 27.505 23.672c1.392 5.918-12.534 21.931-17.408 22.279-4.874.348-19.149-16.013-34.468-20.191-15.318-4.177-24.719-34.115-8.007-45.255 16.711-11.14 32.378-29.59 32.378-29.59l-4.871-26.801 61.273-13.58z" fill="#9493B6"/><path d="M422.32 46.125c0 14.804-15.167 27.042-29.972 27.042a26.805 26.805 0 110-53.61c14.805 0 29.972 11.764 29.972 26.568z" fill="#FBBEBE"/><path d="M399.136 84.829s24.023-10.444 24.023-11.836c0-1.392 13.927 3.133 17.06 5.918 3.133 2.785 4.874 2.437 6.963 8.007 2.089 5.57-10.445 57.439-10.445 57.439s6.964 40.033 10.793 43.863c3.83 3.829-30.986 9.399-30.986 9.399s-22.978 4.177-26.808 5.918c-3.83 1.74-10.793 4.177-9.4 0 1.393-4.178 7.311-7.311-2.785-12.532 0 0 3.481-17.058 0-24.717-3.482-7.658-19.497-35.508-6.615-55.698 12.882-20.191 18.8-27.502 18.8-27.502s4.526 3.83 9.4 1.74z" fill="#012E6D"/><path d="M406.796 179.865s-27.156 12.043-35.338 13.158c-8.181 1.114-32.9 7.38-19.322 12.95 13.578 5.57 34.119-2.785 34.119-2.785l28.897-12.184-8.356-11.139z" fill="#FBBEBE"/><path opacity=".1" d="M436.034 83.76s10.028-4.85 12.813 12.208 12.533 71.016 0 79.023c-12.534 8.007-41.431 20.887-41.431 20.887s-17.06-11.488-9.052-15.665c8.008-4.178 27.156-16.014 29.941-20.191 2.786-4.178 5.6-50.806.726-58.464-4.874-7.66 7.003-17.797 7.003-17.797z" fill="#000"/><path d="M435.345 79.607s13.926-.696 16.711 16.361c2.786 17.058 12.534 71.016 0 79.023-12.533 8.007-41.43 20.887-41.43 20.887s-17.06-11.488-9.052-15.665c8.007-4.178 27.156-16.014 29.941-20.191 2.785-4.178-2.089-47.692-6.963-55.351-4.874-7.658 10.793-25.064 10.793-25.064z" fill="#012E6D"/><path d="M385.744 1.239c-4.274.581-8.859 2.145-11.009 5.883-1.053 1.83-1.393 3.976-2.204 5.925-2.237 5.377-7.67 8.588-11.593 12.893-5.112 5.611-7.651 14.067-4.636 21.032 1.168 2.698 3.064 5.008 4.502 7.572 4.011 7.152 4.225 15.741 4.339 23.94l.225 16.121c.034 2.462.061 4.973-.68 7.321-.741 2.348-2.397 4.546-4.744 5.288a12.302 12.302 0 0014.319-4.89 12.566 12.566 0 01-3.84 11.147c6.382-1.503 11.735-6.145 15.107-11.768 3.372-5.624 4.936-12.165 5.637-18.684.37-3.448.501-7.013-.589-10.306-.767-2.319-2.105-4.397-3.376-6.484-3.275-5.378-6.225-11.098-7.281-17.306-1.055-6.207.005-13.018 4.036-17.856a16.127 16.127 0 0112.741-5.841 14.184 14.184 0 0111.827 7.239c.931 1.753 2.257 4.128 4.144 3.513.349-.149.691-.316 1.022-.502 2.104-.958 4.495.932 5.423 3.05 2.927 6.679-2.466 13.97-3.023 21.241-.519 6.764 3.253 13.143 7.761 18.213a59.842 59.842 0 0029.257 17.973 8.215 8.215 0 01-4.244-2.636 55.738 55.738 0 0013.693-1.148c-4.899-3.691-9.832-7.414-13.922-11.985s-7.329-10.102-8.211-16.172c-1.184-8.145 1.85-16.967-1.619-24.431-3.171-6.825-11.037-10.638-13.91-17.594-2.918-7.065-4.809-13.203-12.535-16.279-8.431-3.357-17.507-5.709-26.617-4.47z" fill="#7C5C5C"/></svg>
